X:1
T:Jerusalem (Purday), CMD
T:Jerusalem (Purday), CMD
T:Chalres Henry Purday (1799-1885)
T:Public Domain Courtesy of the Cyber Hymnal™
C:Chalres Henry Purday (1799-1885)
Z:Public Domain
Z:Courtesy of the Cyber Hymnal™
%%score ( 1 2 ) ( 3 4 )
L:1/8
Q:1/4=115
M:4/4
K:F
V:1 treble 
V:2 treble 
V:3 bass 
V:4 bass 
V:1
 [Ac]2 | [Ac]3 [GB] [FA]2 [Ac]2 | [GB]3 [FA] [EG]2 [GB]2 | [FA]2 [CF]2 D2 [DG]2 | (F4 E2) [Cc]2 | %5
 [Cc]3 [EB] [FA]2 [Fc]2 | [EB]3 [FA] G2 [EB]2 | [FA]2 [DG]2 [CF]2 [CE]2 | ([EG]4 F2) C2 | %9
 [EG]3 F [CE]2 C2 | [CB]3 [CA] [CG]3 [EG] | [FA]2 [FA]2 [F=B]2 [FB]2 | [Ec]6 [Fc]2 | %13
 [Fc]3 [FB] [FA]2 [Fc]2 | [EB]3 [FA] [EG]2 [EB]2 | [FA]2 [DG]2 [CF]2 [CE]2 | (G4 F2) |] %17
V:2
 x2 | x8 | x8 | x4 D2 x2 | C6 x2 | x8 | x4 G2 x2 | x8 | x6 C2 | x6 C2 | x8 | x8 | x8 | x8 | x8 | %15
 x8 | C6 |] %17
V:3
 [F,C]2 | [F,C]3 [F,C] [F,C]2 [F,C]2 | [E,C]3 [F,C] [C,C]2 [E,C]2 | %3
 [F,C]2 [F,A,]2 [B,,B,]2 [B,,B,]2 | (A,4 G,2) [E,G,]2 | [F,A,]3 [G,B,] [A,C]2 [F,A,]2 | %6
 [G,B,]3 [A,C] [B,D]2 [G,B,]2 | [F,C]2 [B,,B,]2 [C,A,]2 [C,G,]2 | ([C,B,]4 [F,A,]2) C2 | %9
 [B,C]3 [A,C] [G,B,]2 ([G,B,][F,A,]) | [E,G,]3 F, [C,E,]3 [C,C] | [F,C]2 [D,D]2 [G,D]2 [G,D]2 | %12
 [C,C]6 [F,A,]2 | [F,A,]3 [F,D] [F,C]2 [F,A,]2 | [G,B,]3 [A,C] [B,C]2 [G,C]2 | %15
 [F,C]2 [B,,B,]2 [C,A,]2 [C,G,]2 | ([C,B,]4 [F,A,]2) |] %17
V:4
 x2 | x8 | x8 | x8 | C,6 x2 | x8 | x8 | x8 | x6 C2 | x8 | x8 | x8 | x8 | x8 | x8 | x8 | x6 |] %17

